public/images/brands/plainadmin-light.svg

<svg fill="none" height="24" viewBox="0 0 143 24" width="143" xmlns="http://www.w3.org/2000/svg" xmlns:xlink="http://www.w3.org/1999/xlink"><clipPath id="a"><path d="m.585815 0h141.778v23.3415h-141.778z"/></clipPath><g clip-path="url(#a)" fill="#fff"><path d="m30.4825 19.4846h2.8675v-5.3158h3.035c3.6656 0 5.5871-2.1882 5.5871-5.2558 0-3.06756-1.9707-5.21585-5.5871-5.21585h-5.9123zm2.8675-7.6639v-5.69548h2.631c2.1481 0 3.104 1.14909 3.104 2.82775 0 1.67863-.9854 2.86773-3.0843 2.86773zm13.7954-8.08358h-2.7591v15.74748h2.8084zm6.3065 15.98728c.6993.0704 1.4038-.0634 2.0306-.3856s1.1497-.8194 1.507-1.4329h.0887v1.6187h2.6901v-7.9437c0-3.11754-2.562-4.05679-4.8284-4.05679-2.5029 0-4.4244 1.10912-5.0354 3.25739l2.6212.3697c.1914-.483.532-.8901.9708-1.16033.4388-.27021.9521-.38896 1.4631-.33845 1.3007 0 1.9707.65948 1.9707 1.81858 0 .7993-.8474.8393-2.9561 1.0591-2.3058.2498-4.5131.9293-4.5131 3.5872.0591 2.3781 1.7638 3.6071 4.0302 3.6071zm.7292-1.9984c-1.1726 0-1.9708-.5296-1.9708-1.5488s.9854-1.5188 2.1876-1.6886c.8847-.0584 1.7554-.2538 2.5817-.5796v1.3889c-.0196.3431-.1074.6786-.2581.9863-.1508.3078-.3614.5814-.6191.8045s-.5573.3911-.8807.4937-.664.1379-1.0012.1036zm8.366 1.8086h2.7985v-11.85062h-2.7591zm1.4091-13.48932c.2109.01496.4226-.01381.6222-.08454s.3829-.18195.5387-.32687c.1558-.14491.2809-.3205.3676-.51604s.1333-.40695.1368-.62132c-.0319-.4138-.2165-.8002-.5169-1.08204-.3005-.28184-.6948-.4384-1.1041-.4384s-.8036.15656-1.104.4384c-.3005.28184-.4851.66824-.517 1.08204.018.41705.1981.80992.5009 1.09268.3029.28275.7038.43237 1.1152.41612zm7.0751 6.56482c-.0367-.3549.0035-.7136.1179-1.051.1143-.3374.3-.6454.5441-.9024s.5406-.4568.8688-.5854c.3282-.12857.6801-.18288 1.0312-.15909.3235-.01879.6472.03492.948.15729.3008.1224.5714.3104.7924.5508.221.2403.3872.5271.4866.8399s.1297.644.0886.97v7.0844h2.7985v-7.544c0-2.82778-1.616-4.44649-4.0696-4.44649-.739-.05721-1.4772.11973-2.1126.50636-.6355.38663-1.1369.96386-1.4348 1.65192h-.138v-1.99841h-2.6802v11.80062h2.7985zm11.1743 6.9145 1.6948-4.7463h6.6613l1.6948 4.7463h1.5175l-5.7251-15.77749h-1.5569l-5.7645 15.73749zm2.158-5.9953 2.8576-7.91368h.0788l2.8084 7.84378zm16.1214 6.285c.782.0233 1.553-.1982 2.207-.6344s1.159-1.0659 1.448-1.8036h.168v2.1882h1.35v-15.81739h-1.39v6.1651h-.128c-.283-.73416-.784-1.36107-1.433-1.79421-.65-.43313-1.416-.65112-2.193-.62387-2.9561 0-4.9268 2.45805-4.9268 6.09517 0 3.6371 2.02 6.1451 4.9368 6.1451zm.167-1.249c-2.3649 0-3.6656-2.1383-3.6656-4.8861s1.281-4.82615 3.6656-4.82615c2.385 0 3.636 1.99845 3.636 4.82615 0 2.8278-1.291 4.8062-3.606 4.8062zm8.928.9992h1.369v-7.6539c-.026-.4065.032-.8141.17-1.1969.137-.3827.352-.73228.63-1.02641.278-.29412.613-.52639.984-.68205.372-.15566.771-.23131 1.173-.22213.349-.02316.7.03081 1.027.1582.327.12738.623.32514.867.57967.245.25452.432.55972.549.89462.117.335.16.6916.128 1.0454v7.9936h1.37v-7.7438c-.032-.3888.019-.78.15-1.1471.13-.367.337-.7012.606-.97991.27-.27871.595-.49537.954-.63525.359-.13989.744-.19972 1.128-.17543.363-.02667.726.02868 1.065.16207.339.13338.645.34147.895.6092.249.26774.438.58842.55.93892.113.3505.147.7219.101 1.0876v7.9137h1.38v-7.9037c0-2.64791-1.37-4.0468-3.577-4.0468-.733-.05163-1.464.12688-2.093.51125-.63.38436-1.127.95595-1.425 1.63704h-.099c-.268-.62529-.706-1.16013-1.263-1.54183s-1.21-.59445-1.883-.61333c-.672-.01888-1.335.15691-1.913.50676-.577.34984-1.044.85926-1.346 1.46855h-.128v-1.81856h-1.34zm18.722 0h1.389v-11.88052h-1.389zm.7-13.83896c.133.00677.267-.01406.392-.06123s.24-.1197.337-.21317c.096-.09347.173-.20592.226-.33053.052-.1246.079-.25875.079-.39428 0-.27826-.109-.54512-.303-.74187-.194-.19676-.457-.3073-.731-.3073-.275 0-.538.11054-.732.3073-.194.19675-.303.46361-.303.74187.01.13229.046.26125.105.37937.06.11811.142.22302.242.30859s.216.15009.341.18981c.124.03971.256.05382.386.0415zm5.705 6.45486c-.028-.4401.036-.8814.187-1.2947.152-.4134.388-.7895.693-1.10375.306-.31423.673-.55944 1.078-.71953.406-.16009.84-.23144 1.274-.20937.406-.01737.81.05338 1.187.2075.376.15412.716.38805.995.68611.28.29804.494.65334.628 1.04214.133.3887.183.8018.146 1.2118v7.5639h1.38v-7.7238c0-2.7978-1.636-4.31659-4.03-4.31659-.713-.05597-1.426.10412-2.049.45994s-1.127.89131-1.45 1.53847h-.128v-1.83854h-1.34v11.80062h1.38z"/><path d="m26.3635 10.172-5.0846-8.66309c-.2583-.45783-.6313-.83843-1.0811-1.103348s-.9607-.40477578-1.4809-.40544843h-10.11006c-.52521-.00463549-1.04215.13270443-1.49764.39789043-.45549.265185-.83309.648636-1.09393 1.110906l-5.055043 8.66309c-.246659.46-.375876.9753-.375876 1.4988 0 .5236.129217 1.0389.375876 1.4989l5.055043 8.6631c.26084.4622.63844.8457 1.09393 1.1109s.97243.4025 1.49764.3979h10.11006c.5193.0003 1.0294-.138 1.4792-.4012.4497-.2631.8232-.6417 1.0828-1.0976l5.0551-8.6632c.2521-.4589.3868-.9746.392-1.5.0051-.5253-.1195-1.0436-.3625-1.5076zm-1.9707 1.8785-5.0846 8.6632c-.068.125-.1703.2274-.2945.2948-.1241.0673-.2648.0968-.4052.0849h-10.00166c-.13914.004-.27691-.0289-.39964-.0955s-.22614-.1646-.29998-.2842l-5.04519-8.6632c-.06323-.127-.09617-.2673-.09617-.4096s.03294-.2827.09617-.4097l5.05504-8.65313c.06801-.12504.17027-.22743.29442-.29481s.26489-.09686.40521-.08489h10.1002c.1392-.00407.2769.02883.3997.09544.1227.0666.2261.1646.3.28426l5.055 8.66313c.0664.1273.0953.2714.083.415-.0122.1435-.065.2804-.152.3943z"/><path d="m18.2637 6.22517h-2.0299c-.7939-.00546-1.5581.30579-2.1278.86658-.5696.56079-.899 1.32618-.9171 2.13104v2.18821h-2.1974c-.7939-.0054-1.55811.3058-2.12774.8666s-.89902 1.3262-.9171 2.1311v1.9984c.00519.4249.17598.8305.47507 1.1281.29909.2977.70218.4633 1.12126.4606h1.97081c.7939.0055 1.5581-.3058 2.1277-.8666s.899-1.3261.9171-2.131v-2.1483h2.2073c.7939.0055 1.5581-.3058 2.1277-.8666.5697-.5608.8991-1.3262.9171-2.13101v-1.99842c.004-.20995-.033-.41864-.1086-.61413s-.1885-.37395-.3322-.5252c-.1436-.15125-.3153-.27231-.5051-.35628s-.3941-.12919-.6011-.13309zm-5.0748 8.79303c-.0025.2139-.0466.4252-.1297.6218-.0832.1966-.2036.3747-.3546.524-.151.1494-.3295.2672-.5254.3466s-.4052.1189-.6162.1163h-1.97075c-.04538.0001-.08906-.0175-.12206-.0491-.03299-.0316-.05278-.0748-.05531-.1208v-1.9984c.00258-.2139.04667-.4251.12978-.6217.0831-.1967.20358-.3747.35457-.5241.15097-.1494.32947-.2672.52537-.3466s.4052-.1189.6162-.1163h2.1974zm5.2521-5.21587c-.0052.43287-.1791.84607-.4837 1.14937s-.7152.472-1.1421.4693h-2.2073v-2.18822c.0013-.21474.0444-.42709.1269-.62485.0826-.19776.2029-.37702.354-.52747.1511-.15044.33-.2691.5265-.34914s.4067-.11989.6185-.11725h2.0299c.047 0 .0921.01894.1254.05267s.0519.07948.0519.12718z" stroke="#fff" stroke-width=".5"/></g></svg>

<svg width="143" height="24" viewBox="0 0 143 24" fill="none" xmlns="http://www.w3.org/2000/svg">
<g clip-path="url(#clip0_1003_1701)">
<path d="M30.4825 19.4846H33.35V14.1688H36.385C40.0506 14.1688 41.9721 11.9806 41.9721 8.913C41.9721 5.84544 40.0014 3.69715 36.385 3.69715H30.4727L30.4825 19.4846ZM33.35 11.8207V6.12522H35.981C38.1291 6.12522 39.085 7.27431 39.085 8.95297C39.085 10.6316 38.0996 11.8207 36.0007 11.8207H33.35ZM47.1454 3.73712H44.3863V19.4846H47.1947L47.1454 3.73712ZM53.4519 19.7244C54.1512 19.7948 54.8557 19.661 55.4825 19.3388C56.1093 19.0166 56.6322 18.5194 56.9895 17.9059H57.0782V19.5246H59.7683V11.5809C59.7683 8.46336 57.2063 7.52411 54.9399 7.52411C52.437 7.52411 50.5155 8.63323 49.9045 10.7815L52.5257 11.1512C52.7171 10.6682 53.0577 10.2611 53.4965 9.99087C53.9353 9.72066 54.4486 9.60191 54.9596 9.65242C56.2603 9.65242 56.9303 10.3119 56.9303 11.471C56.9303 12.2703 56.0829 12.3103 53.9742 12.5301C51.6684 12.7799 49.4611 13.4594 49.4611 16.1173C49.5202 18.4954 51.2249 19.7244 53.4913 19.7244H53.4519ZM54.1811 17.726C53.0085 17.726 52.2103 17.1964 52.2103 16.1772C52.2103 15.158 53.1957 14.6584 54.3979 14.4886C55.2826 14.4302 56.1533 14.2348 56.9796 13.909V15.2979C56.96 15.641 56.8722 15.9765 56.7215 16.2842C56.5707 16.592 56.3601 16.8656 56.1024 17.0887C55.8447 17.3118 55.5451 17.4798 55.2217 17.5824C54.8983 17.685 54.5577 17.7203 54.2205 17.686L54.1811 17.726ZM62.5471 19.5346H65.3456V7.68398H62.5865L62.5471 19.5346ZM63.9562 6.04528C64.1671 6.06024 64.3788 6.03147 64.5784 5.96074C64.778 5.89001 64.9613 5.77879 65.1171 5.63387C65.2729 5.48896 65.398 5.31337 65.4847 5.11783C65.5714 4.92229 65.618 4.71088 65.6215 4.49651C65.5896 4.08271 65.405 3.69631 65.1046 3.41447C64.8041 3.13263 64.4098 2.97607 64.0005 2.97607C63.5912 2.97607 63.1969 3.13263 62.8965 3.41447C62.596 3.69631 62.4114 4.08271 62.3795 4.49651C62.3975 4.91356 62.5776 5.30643 62.8804 5.58919C63.1833 5.87194 63.5842 6.02156 63.9956 6.00531L63.9562 6.04528ZM71.0313 12.6101C70.9946 12.2552 71.0348 11.8965 71.1492 11.5591C71.2635 11.2217 71.4492 10.9137 71.6933 10.6567C71.9374 10.3997 72.2339 10.1999 72.5621 10.0713C72.8903 9.94273 73.2422 9.88842 73.5933 9.91221C73.9168 9.89342 74.2405 9.94713 74.5413 10.0695C74.8421 10.1919 75.1127 10.3799 75.3337 10.6203C75.5547 10.8606 75.7209 11.1474 75.8203 11.4602C75.9197 11.773 75.95 12.1042 75.9089 12.4302V19.5146H78.7074V11.9706C78.7074 9.14282 77.0914 7.52411 74.6378 7.52411C73.8988 7.4669 73.1606 7.64384 72.5252 8.03047C71.8897 8.4171 71.3883 8.99433 71.0904 9.68239H70.9524V7.68398H68.2722V19.4846H71.0707L71.0313 12.6101ZM82.2056 19.5246L83.9004 14.7783H90.5617L92.2565 19.5246H93.774L88.0489 3.74711H86.492L80.7275 19.4846L82.2056 19.5246ZM84.3636 13.5293L87.2212 5.61562H87.3L90.1084 13.4594L84.3636 13.5293ZM100.485 19.8143C101.267 19.8376 102.038 19.6161 102.692 19.1799C103.346 18.7437 103.851 18.114 104.14 17.3763H104.308V19.5645H105.658V3.74711H104.268V9.91221H104.14C103.857 9.17805 103.356 8.55114 102.707 8.118C102.057 7.68487 101.291 7.46688 100.514 7.49413C97.5579 7.49413 95.5872 9.95218 95.5872 13.5893C95.5872 17.2264 97.6072 19.7344 100.524 19.7344L100.485 19.8143ZM100.652 18.5653C98.2871 18.5653 96.9864 16.427 96.9864 13.6792C96.9864 10.9314 98.2674 8.85305 100.652 8.85305C103.037 8.85305 104.288 10.8515 104.288 13.6792C104.288 16.507 102.997 18.4854 100.682 18.4854L100.652 18.5653ZM109.58 19.5645H110.949V11.9106C110.923 11.5041 110.981 11.0965 111.119 10.7137C111.256 10.331 111.471 9.98142 111.749 9.68729C112.027 9.39317 112.362 9.1609 112.733 9.00524C113.105 8.84958 113.504 8.77393 113.906 8.78311C114.255 8.75995 114.606 8.81392 114.933 8.94131C115.26 9.06869 115.556 9.26645 115.8 9.52098C116.045 9.7755 116.232 10.0807 116.349 10.4156C116.466 10.7506 116.509 11.1072 116.477 11.461V19.4546H117.847V11.7108C117.815 11.322 117.866 10.9308 117.997 10.5637C118.127 10.1967 118.334 9.8625 118.603 9.58379C118.873 9.30508 119.198 9.08842 119.557 8.94854C119.916 8.80865 120.301 8.74882 120.685 8.77311C121.048 8.74644 121.411 8.80179 121.75 8.93518C122.089 9.06856 122.395 9.27665 122.645 9.54438C122.894 9.81212 123.083 10.1328 123.195 10.4833C123.308 10.8338 123.342 11.2052 123.296 11.5709V19.4846H124.676V11.5809C124.676 8.93299 123.306 7.5341 121.099 7.5341C120.366 7.48247 119.635 7.66098 119.006 8.04535C118.376 8.42971 117.879 9.0013 117.581 9.68239H117.482C117.214 9.0571 116.776 8.52226 116.219 8.14056C115.662 7.75886 115.009 7.54611 114.336 7.52723C113.664 7.50835 113.001 7.68414 112.423 8.03399C111.846 8.38383 111.379 8.89325 111.077 9.50254H110.949V7.68398H109.609L109.58 19.5645ZM128.302 19.5645H129.691V7.68398H128.302V19.5645ZM129.002 5.72554C129.135 5.73231 129.269 5.71148 129.394 5.66431C129.519 5.61714 129.634 5.54461 129.731 5.45114C129.827 5.35767 129.904 5.24522 129.957 5.12061C130.009 4.99601 130.036 4.86186 130.036 4.72633C130.036 4.44807 129.927 4.18121 129.733 3.98446C129.539 3.7877 129.276 3.67716 129.002 3.67716C128.727 3.67716 128.464 3.7877 128.27 3.98446C128.076 4.18121 127.967 4.44807 127.967 4.72633C127.977 4.85862 128.013 4.98758 128.072 5.1057C128.132 5.22381 128.214 5.32872 128.314 5.41429C128.414 5.49986 128.53 5.56438 128.655 5.6041C128.779 5.64381 128.911 5.65792 129.041 5.6456L129.002 5.72554ZM134.707 12.1804C134.679 11.7403 134.743 11.299 134.894 10.8857C135.046 10.4723 135.282 10.0962 135.587 9.78195C135.893 9.46772 136.26 9.22251 136.665 9.06242C137.071 8.90233 137.505 8.83098 137.939 8.85305C138.345 8.83568 138.749 8.90643 139.126 9.06055C139.502 9.21467 139.842 9.4486 140.121 9.74666C140.401 10.0447 140.615 10.4 140.749 10.7888C140.882 11.1775 140.932 11.5906 140.895 12.0006V19.5645H142.275V11.8407C142.275 9.0429 140.639 7.52411 138.245 7.52411C137.532 7.46814 136.819 7.62823 136.196 7.98405C135.573 8.33987 135.069 8.87536 134.746 9.52252H134.618V7.68398H133.278V19.4846H134.658L134.707 12.1804Z" fill="white"/>
<path d="M26.3635 10.172L21.2789 1.50891C21.0206 1.05108 20.6476 0.67048 20.1978 0.405562C19.748 0.140644 19.2371 0.000786223 18.7169 0.000113573H8.60684C8.08163 -0.00452192 7.56469 0.132818 7.1092 0.398004C6.65371 0.663189 6.27611 1.04664 6.01527 1.50891L0.960227 10.172C0.713568 10.632 0.584351 11.1473 0.584351 11.6708C0.584351 12.1944 0.713568 12.7097 0.960227 13.1697L6.01527 21.8328C6.27611 22.295 6.65371 22.6785 7.1092 22.9437C7.56469 23.2089 8.08163 23.3462 8.60684 23.3416H18.7169C19.2362 23.3419 19.7463 23.2036 20.1961 22.9404C20.6458 22.6773 21.0193 22.2987 21.2789 21.8428L26.334 13.1796C26.5861 12.7207 26.7208 12.205 26.726 11.6796C26.7311 11.1543 26.6065 10.636 26.3635 10.172ZM24.3928 12.0505L19.3082 20.7137C19.2402 20.8387 19.1379 20.9411 19.0137 21.0085C18.8896 21.0758 18.7489 21.1053 18.6085 21.0934H8.60684C8.4677 21.0974 8.32993 21.0645 8.2072 20.9979C8.08447 20.9313 7.98106 20.8333 7.90722 20.7137L2.86203 12.0505C2.7988 11.9235 2.76586 11.7832 2.76586 11.6409C2.76586 11.4986 2.7988 11.3582 2.86203 11.2312L7.91707 2.57807C7.98508 2.45303 8.08734 2.35064 8.21149 2.28326C8.33564 2.21588 8.47638 2.1864 8.6167 2.19837H18.7169C18.8561 2.1943 18.9938 2.2272 19.1166 2.29381C19.2393 2.36041 19.3427 2.45841 19.4166 2.57807L24.4716 11.2412C24.538 11.3685 24.5669 11.5126 24.5546 11.6562C24.5424 11.7997 24.4896 11.9366 24.4026 12.0505H24.3928Z" fill="white"/>
<path d="M18.2637 6.22517H16.2338C15.4399 6.21971 14.6757 6.53096 14.106 7.09175C13.5364 7.65254 13.207 8.41793 13.1889 9.22279V11.411H10.9915C10.1976 11.4056 9.43339 11.7168 8.86376 12.2776C8.29413 12.8384 7.96474 13.6038 7.94666 14.4087V16.4071C7.95185 16.832 8.12264 17.2376 8.42173 17.5352C8.72082 17.8329 9.12391 17.9985 9.54299 17.9958H11.5138C12.3077 18.0013 13.0719 17.69 13.6415 17.1292C14.2111 16.5684 14.5405 15.8031 14.5586 14.9982V12.8499H16.7659C17.5598 12.8554 18.324 12.5441 18.8936 11.9833C19.4633 11.4225 19.7927 10.6571 19.8107 9.85229V7.85387C19.8147 7.64392 19.7777 7.43523 19.7021 7.23974C19.6265 7.04425 19.5136 6.86579 19.3699 6.71454C19.2263 6.56329 19.0546 6.44223 18.8648 6.35826C18.675 6.27429 18.4707 6.22907 18.2637 6.22517ZM13.1889 15.0182C13.1864 15.2321 13.1423 15.4434 13.0592 15.64C12.976 15.8366 12.8556 16.0147 12.7046 16.164C12.5536 16.3134 12.3751 16.4312 12.1792 16.5106C11.9833 16.59 11.774 16.6295 11.563 16.6269H9.59225C9.54687 16.627 9.50319 16.6094 9.47019 16.5778C9.4372 16.5462 9.41741 16.503 9.41488 16.457V14.4586C9.41746 14.2447 9.46155 14.0335 9.54466 13.8369C9.62776 13.6402 9.74824 13.4622 9.89923 13.3128C10.0502 13.1634 10.2287 13.0456 10.4246 12.9662C10.6205 12.8868 10.8298 12.8473 11.0408 12.8499H13.2382L13.1889 15.0182ZM18.441 9.80233C18.4358 10.2352 18.2619 10.6484 17.9573 10.9517C17.6527 11.255 17.2421 11.4237 16.8152 11.421H14.6079V9.23278C14.6092 9.01804 14.6523 8.80569 14.7348 8.60793C14.8174 8.41017 14.9377 8.23091 15.0888 8.08046C15.2399 7.93002 15.4188 7.81136 15.6153 7.73132C15.8118 7.65128 16.022 7.61143 16.2338 7.61407H18.2637C18.3107 7.61407 18.3558 7.63301 18.3891 7.66674C18.4224 7.70047 18.441 7.74622 18.441 7.79392V9.80233Z" fill="white" stroke="white" stroke-width="0.5"/>
</g>
<defs>
<clipPath id="clip0_1003_1701">
<rect width="141.778" height="23.3415" fill="white" transform="translate(0.585815)"/>
</clipPath>
</defs>
</svg>
